svg/cardiogram_e_positive.svg

<svg width="48" height="48" viewBox="0 0 48 48" fill="none" xmlns="http://www.w3.org/2000/svg">
<path fill-rule="evenodd" clip-rule="evenodd" d="M24.03 4.96997C22.63 4.96997 21.48 6.06997 21.41 7.46997H19.31C18.72 7.46997 18.25 7.94997 18.25 8.53997V8.77997H11.86C10.83 8.77997 10 9.59997 10 10.63V41.17C10 42.2 10.83 43.03 11.86 43.03H36.14C37.17 43.03 38 42.2 38 41.17V15.94C37.99 16.1 37.95 16.28 37.87 16.44L30.2 32.95C30.1268 33.1077 30.0227 33.2492 29.8939 33.366C29.7651 33.4828 29.6141 33.5726 29.45 33.63L29.43 33.65L26.07 37.28L26.02 37.32H26C25.9571 37.3604 25.9059 37.3911 25.85 37.41H25.84C25.7844 37.4239 25.7268 37.4272 25.67 37.42H25.66H25.64C25.594 37.4115 25.5499 37.3945 25.51 37.37C25.48 37.37 25.46 37.34 25.44 37.33L25.4 37.3L25.38 37.28C25.3484 37.2471 25.3215 37.2101 25.3 37.17L25.28 37.14C25.2598 37.0856 25.2496 37.028 25.25 36.97V36.89L25.81 31.99L25.83 31.94C25.7703 31.7789 25.743 31.6076 25.7499 31.436C25.7568 31.2643 25.7976 31.0957 25.87 30.94L33.55 14.42C33.622 14.2648 33.724 14.1255 33.85 14.0098C33.976 13.8941 34.1235 13.8045 34.2843 13.7459C34.445 13.6874 34.6156 13.6612 34.7865 13.6687C34.9574 13.6763 35.1251 13.7175 35.28 13.79L37.24 14.71C37.74 14.94 38.01 15.43 38 15.94V10.64C38 9.59997 37.17 8.77997 36.14 8.77997H29.74V8.53997C29.74 7.93997 29.27 7.46997 28.69 7.46997H26.65C26.6191 6.79611 26.3295 6.16013 25.8415 5.69445C25.3534 5.22877 24.7046 4.96926 24.03 4.96997ZM23.99 6.41997C24.3016 6.41997 24.6005 6.54377 24.8209 6.76412C25.0412 6.98448 25.165 7.28334 25.165 7.59497C25.165 7.9066 25.0412 8.20547 24.8209 8.42582C24.6005 8.64618 24.3016 8.76997 23.99 8.76997C23.6784 8.76997 23.3795 8.64618 23.1591 8.42582C22.9388 8.20547 22.815 7.9066 22.815 7.59497C22.815 7.28334 22.9388 6.98448 23.1591 6.76412C23.3795 6.54377 23.6784 6.41997 23.99 6.41997ZM19.66 8.19997H21.46C21.66 9.02997 22.24 9.69997 22.99 10.01H22.98C23.1537 10.085 23.3346 10.142 23.52 10.18L23.62 10.19C23.74 10.21 23.87 10.22 24 10.22H24.01C24.14 10.22 24.27 10.22 24.41 10.19L24.5 10.18C24.6573 10.1474 24.8112 10.1005 24.96 10.04L25.04 10.01H25.03C25.4093 9.84973 25.7455 9.60234 26.0114 9.28786C26.2772 8.97339 26.4652 8.60068 26.56 8.19997H28.31C28.66 8.19997 28.95 8.48997 28.95 8.83997V11.05H19.02V8.82997C19.02 8.47997 19.3 8.18997 19.66 8.18997V8.19997ZM22.26 13.32L22.36 13.33C22.38 13.33 22.4 13.33 22.42 13.35H22.44L22.54 13.41L22.57 13.43L22.67 13.55L22.68 13.57C22.71 13.62 22.72 13.68 22.73 13.74V13.77L23.16 18.8L24.49 14.92C24.509 14.8606 24.5399 14.8058 24.5808 14.7587C24.6217 14.7117 24.6717 14.6735 24.7278 14.6463C24.7839 14.6192 24.845 14.6038 24.9072 14.601C24.9695 14.5982 25.0317 14.608 25.09 14.63L25.13 14.66C25.23 14.7 25.3 14.76 25.36 14.84L26.86 17.24L27.66 16.24C27.7177 16.1635 27.7983 16.1075 27.89 16.08H27.91L28.01 16.06L28.08 16.05H31.57C31.692 16.05 31.809 16.0984 31.8953 16.1847C31.9815 16.271 32.03 16.388 32.03 16.51C32.03 16.632 31.9815 16.749 31.8953 16.8352C31.809 16.9215 31.692 16.97 31.57 16.97H28.26L27.19 18.34C27.1193 18.4268 27.0193 18.4849 26.9089 18.5033C26.7984 18.5217 26.685 18.4992 26.59 18.44C26.58 18.44 26.56 18.44 26.54 18.42L26.47 18.34L26.42 18.29L25.06 16.11L23.32 21.15C23.2909 21.2351 23.2376 21.3098 23.1665 21.3649C23.0954 21.42 23.0097 21.4531 22.92 21.46C22.8595 21.4655 22.7986 21.4589 22.7407 21.4408C22.6828 21.4226 22.629 21.3931 22.5826 21.3541C22.5361 21.315 22.4978 21.2672 22.4699 21.2133C22.442 21.1594 22.425 21.1005 22.42 21.04L21.98 15.88L20.99 18.54L20.98 18.56C20.9629 18.6294 20.9294 18.6937 20.8825 18.7476C20.8355 18.8015 20.7764 18.8435 20.71 18.87C20.6536 18.8926 20.5932 18.9039 20.5324 18.903C20.4716 18.9022 20.4116 18.8893 20.3558 18.8652C20.3 18.841 20.2495 18.806 20.2073 18.7622C20.1651 18.7184 20.1321 18.6666 20.11 18.61L19.09 16L18.16 16.92C18.06 17.02 17.93 17.06 17.8 17.05L17.73 17.07H14.24C14.1787 17.07 14.1181 17.0578 14.0616 17.034C14.0052 17.0103 13.954 16.9755 13.9111 16.9317C13.8683 16.8879 13.8346 16.836 13.8121 16.7791C13.7896 16.7221 13.7787 16.6612 13.78 16.6C13.78 16.34 13.98 16.14 14.24 16.14H17.64L18.92 14.86C18.97 14.82 19.02 14.78 19.08 14.76L19.1 14.75C19.34 14.65 19.61 14.77 19.7 15.01L20.53 17.12L21.83 13.64V13.62H21.84L21.85 13.58C21.8699 13.5358 21.8969 13.4953 21.93 13.46L22 13.4L22.07 13.36C22.1 13.34 22.14 13.33 22.18 13.33L22.23 13.31H22.25L22.26 13.32ZM35.1 14.48C34.862 14.4703 34.6264 14.5317 34.4234 14.6564C34.2204 14.781 34.0591 14.9633 33.96 15.18L33.36 16.48L36.43 17.91L37.03 16.61C37.0974 16.4669 37.1359 16.3119 37.1433 16.1539C37.1506 15.9959 37.1266 15.8381 37.0727 15.6894C37.0188 15.5407 36.936 15.4041 36.8292 15.2875C36.7223 15.1709 36.5934 15.0766 36.45 15.01L35.56 14.59C35.41 14.52 35.26 14.49 35.1 14.48ZM33.1 17.03L32.8 17.69L35.87 19.12L36.17 18.46L33.1 17.03ZM32.54 18.23L30.44 22.73L26.85 30.45L26.55 31.09C26.4959 31.2107 26.4918 31.3479 26.5387 31.4716C26.5855 31.5953 26.6795 31.6954 26.8 31.75L27.44 32.05L28.34 32.46L28.98 32.76C29.0995 32.8147 29.2357 32.8203 29.3592 32.7754C29.4827 32.7304 29.5836 32.6387 29.64 32.52L29.94 31.88L33.53 24.15L35.61 19.67L32.54 18.23ZM13.94 24H28.28L27.61 25.37H13.94V24ZM13.94 28H26.34L25.67 29.37H13.94V28ZM13.94 32H24.39L23.72 33.37H13.94V32ZM26.49 32.39L25.96 36.38L28.61 33.39L26.49 32.39ZM13.94 36H22.44L21.78 37.37H13.94V36Z" fill="#333333"/>
</svg>

<?xml version="1.0" encoding="UTF-8" standalone="no"?>
<!-- Created with Inkscape (http://www.inkscape.org/) -->
<svg id="svg8" xmlns:rdf="http://www.w3.org/1999/02/22-rdf-syntax-ns#" xmlns="http://www.w3.org/2000/svg" xmlns:osb="http://www.openswatchbook.org/uri/2009/osb" height="48" width="48" version="1.1" xmlns:cc="http://creativecommons.org/ns#" viewBox="0 0 12.7 12.7" xmlns:dc="http://purl.org/dc/elements/1.1/">
 <title id="title4753">UIO-icon</title>
 <metadata id="metadata5">
  <rdf:RDF>
   <cc:Work rdf:about="">
    <dc:format>image/svg+xml</dc:format>
    <dc:type rdf:resource="http://purl.org/dc/dcmitype/StillImage"/>
    <dc:title>UIO-icon</dc:title>
    <dc:creator>
     <cc:Agent>
      <dc:title>Joaquín Urbano</dc:title>
     </cc:Agent>
    </dc:creator>
    <dc:rights>
     <cc:Agent>
      <dc:title>GPL</dc:title>
     </cc:Agent>
    </dc:rights>
   </cc:Work>
  </rdf:RDF>
 </metadata>
 <g id="layer1" fill="#333" transform="translate(0,-284.3)">
  <path id="rect4798" d="m24.029 4.9727c-1.4 0.0015-2.552 1.1015-2.619 2.5h-2.098c-0.589 0-1.062 0.4752-1.062 1.0644v0.2383h-6.389c-1.029 0-1.859 0.8278-1.859 1.8576v30.535c0 1.03 0.83 1.859 1.859 1.859h24.278c1.029 0 1.857-0.829 1.857-1.859v-25.232c-0.006 0.169-0.047 0.34-0.123 0.503l-7.682 16.514c-0.155 0.334-0.432 0.571-0.753 0.682-0.007 0.004-0.008 0.012-0.014 0.019l-3.36 3.627c-0.014 0.015-0.035 0.022-0.052 0.037-0.002 0.001-0.003 0.003-0.004 0.004-0.002 0.002-0.006 0.001-0.008 0.002-0.047 0.038-0.096 0.065-0.15 0.08-0.001 0.001-0.003 0.002-0.004 0.002-0.002 0.001-0.004 0.002-0.006 0.002-0.056 0.014-0.112 0.023-0.168 0.016-0.004-0.002-0.007 0-0.012 0-0.007 0-0.015-0.007-0.021-0.008-0.046-0.007-0.089-0.018-0.131-0.041-0.025-0.011-0.045-0.03-0.067-0.045-0.014-0.011-0.032-0.016-0.045-0.027-0.007-0.008-0.01-0.018-0.017-0.026-0.032-0.033-0.056-0.069-0.078-0.109-0.004-0.011-0.012-0.02-0.016-0.031-0.022-0.053-0.032-0.105-0.035-0.164-0.002-0.026-0.008-0.052-0.006-0.078l0.568-4.901c0.002-0.019 0.014-0.034 0.018-0.053-0.118-0.315-0.115-0.675 0.039-1.005l7.68-16.516c0.228-0.492 0.722-0.773 1.23-0.754 0.17 0.006 0.34 0.045 0.504 0.121l1.957 0.92c0.492 0.229 0.775 0.721 0.756 1.229v-5.303c0-1.0298-0.828-1.8576-1.857-1.8576h-6.391v-0.2383c0-0.5892-0.473-1.0644-1.062-1.0644h-2.038c-0.066-1.3985-1.219-2.4985-2.619-2.5zm-0.043 1.4511c0.648 0.0007 1.173 0.5262 1.172 1.1739 0.001 0.6477-0.524 1.1731-1.172 1.1738-0.648 0.0004-1.174-0.5254-1.174-1.1738 0-0.6485 0.526-1.1743 1.174-1.1739zm-4.33 1.7657h1.803c0.196 0.8351 0.782 1.4911 1.535 1.8105h-0.015c0.032 0.013 0.064 0.025 0.097 0.037 0.035 0.014 0.07 0.027 0.106 0.039 0.112 0.038 0.227 0.068 0.343 0.09 0.031 0.006 0.063 0.009 0.094 0.014 0.126 0.021 0.253 0.032 0.381 0.035h0.012c0.131-0.002 0.263-0.014 0.392-0.035 0.031-0.005 0.062-0.008 0.092-0.014 0.111-0.022 0.221-0.05 0.328-0.086 0.047-0.015 0.092-0.033 0.137-0.051 0.027-0.009 0.053-0.019 0.08-0.029h-0.012c0.753-0.3194 1.34-0.9754 1.535-1.8105h1.747c0.354 0 0.64 0.2857 0.64 0.6406v1.1699 1.051h-9.935v-1.051-1.1699c0-0.3549 0.285-0.6406 0.64-0.6406zm2.598 5.1175c0.035 0 0.07 0.01 0.105 0.017 0.021 0.004 0.043 0.004 0.063 0.012 0.005 0.002 0.009 0 0.014 0.002 0.036 0.013 0.064 0.036 0.095 0.058 0.014 0.012 0.031 0.016 0.043 0.028 0.038 0.033 0.067 0.073 0.092 0.115 0.005 0.008 0.013 0.014 0.018 0.022 0.026 0.052 0.041 0.112 0.046 0.171l0.002 0.002c0.001 0.008 0.002 0.02 0.002 0.028l0.422 5.025 1.338-3.877c0.084-0.243 0.347-0.371 0.59-0.287 0.019 0.008 0.033 0.022 0.051 0.029 0.087 0.035 0.168 0.092 0.222 0.178l1.508 2.406 0.799-1.013c0.061-0.077 0.142-0.122 0.229-0.149 0.004-0.001 0.011-0.002 0.015-0.004 0.033-0.007 0.062-0.016 0.096-0.017 0.025-0.004 0.048-0.016 0.074-0.016h3.49c0.257 0 0.465 0.206 0.465 0.463s-0.208 0.465-0.465 0.465h-3.308l-1.074 1.363c-0.146 0.184-0.397 0.219-0.594 0.106-0.016-0.008-0.033-0.013-0.047-0.024-0.004-0.004-0.008-0.005-0.012-0.008-0.024-0.019-0.039-0.045-0.058-0.068-0.017-0.021-0.038-0.032-0.051-0.055l-1.362-2.174-1.738 5.038c-0.063 0.182-0.226 0.301-0.406 0.312-0.001 0-0.002 0.002-0.004 0.002-0.256 0.021-0.48-0.168-0.502-0.424l-0.432-5.158-0.99 2.652c-0.002 0.008-0.007 0.012-0.01 0.02-0.036 0.139-0.126 0.262-0.271 0.318-0.24 0.094-0.508-0.024-0.602-0.263l-1.013-2.602-0.93 0.922c-0.099 0.099-0.23 0.136-0.359 0.129-0.023 0.004-0.046 0.015-0.071 0.015h-3.49c-0.257 0-0.463-0.207-0.463-0.464s0.206-0.465 0.463-0.465h3.399l1.281-1.272c0.047-0.047 0.101-0.081 0.16-0.103 0.007-0.004 0.012-0.009 0.02-0.012 0.239-0.093 0.506 0.024 0.599 0.264l0.824 2.111 1.301-3.484c0.002-0.008 0.007-0.016 0.01-0.024l0.002-0.006c0.003-0.011 0.011-0.019 0.015-0.027 0.02-0.043 0.043-0.085 0.075-0.119 0.021-0.023 0.048-0.042 0.074-0.061 0.021-0.014 0.04-0.033 0.064-0.045 0.036-0.019 0.074-0.025 0.114-0.033 0.018-0.004 0.032-0.014 0.05-0.015 0.004-0.001 0.007 0.002 0.01 0.001 0.004 0 0.006-0.003 0.01-0.003l0.002-0.002zm12.842 1.16c-0.471-0.017-0.926 0.244-1.137 0.699l-0.605 1.303 3.08 1.431 0.605-1.302c0.282-0.607 0.02-1.322-0.586-1.604l-0.891-0.414c-0.151-0.071-0.31-0.106-0.466-0.113zm-1.998 2.549l-0.307 0.662 3.078 1.433 0.309-0.664-3.08-1.431zm-0.561 1.209l-2.088 4.486-3.594 7.728-0.298 0.643c-0.117 0.25-0.01 0.544 0.24 0.66l0.644 0.299 0.891 0.414 0.645 0.299c0.249 0.116 0.543 0.01 0.66-0.24l0.299-0.643 3.593-7.726 2.086-4.489-3.078-1.431zm-18.598 5.775h14.346l-0.67 1.375h-13.676v-1.375zm0 4h12.401l-0.67 1.375h-11.731v-1.375zm0 4h10.454l-0.668 1.375h-9.786v-1.375zm12.551 0.387l-0.531 3.99 2.654-2.986-2.123-1.004zm-12.551 3.613h8.508l-0.668 1.375h-7.84v-1.375z" fill-rule="evenodd" fill-opacity=".99505" transform="matrix(.26458 0 0 .26458 0 284.3)"/>
 </g>
</svg>
